icons/op-folder-add-24.svg

<svg width="24" height="24" viewBox="0 0 24 24" fill="none" xmlns="http://www.w3.org/2000/svg">
<path d="M13 14.3077V13.3846H15V11.5385H19V8.76923C19 8.25 18.5625 7.84615 18 7.84615H12C11.4375 7.84615 10.7188 7.52885 10.3438 7.15385L9.90625 6.69231C9.53125 6.31731 8.8125 6 8.25 6H5C4.4375 6 4 6.40385 4 6.92308V16.1538C4 16.6731 4.4375 17.0769 5 17.0769H13V14.3077ZM20 14.3077H18V12.4615H16V14.3077H14V16.1538H16V18H18V16.1538H20V14.3077Z" fill="black"/>
</svg>

<svg xmlns="http://www.w3.org/2000/svg" width="24" height="24" viewBox="0 0 24 24"><path d="M13 14.308v-.923h2v-1.846h4v-2.77c0-.519-.438-.923-1-.923h-6c-.562 0-1.281-.317-1.656-.692l-.438-.462C9.531 6.317 8.812 6 8.25 6H5c-.562 0-1 .404-1 .923v9.231c0 .519.438.923 1 .923h8v-2.769Zm7 0h-2v-1.847h-2v1.847h-2v1.846h2V18h2v-1.846h2v-1.846Z"/></svg>
